X:1
T:Gott, gib Fried' in deinem Lande
T:Eduard Grell
T:Gott, gib Fried' in deinem Lande
T:CPDL - Creative Commons Attribution Non Commercial 3.0
T:CPDL - Creative Commons Attribution Non Commercial 3.0
T:CPDL - Creative Commons Attribution Non Commercial 3.0
T:CPDL - Creative Commons Attribution Non Commercial 3.0
C:Eduard Grell
Z:CPDL - Creative Commons Attribution Non Commercial 3.0
%%score [ 1 2 3 4 ]
L:1/8
Q:1/4=80
M:4/4
K:A
V:1 treble nm="Sopran"
V:2 treble nm="Alt"
V:3 treble-8 nm="Tenor"
V:4 bass nm="Bass"
V:1
"^Langsam und feierlich"!p! c6 c2 | !>!e3 d c2 c2 | c4 !breath!B4 |"^cresc." d6 d2 | %4
w: Gott, gib|Fried in dei- nem|Lan- de,|Glück und|
 !>!f3 e d2 d2 | d4 !breath!c4 |!mf! d4 d2 d2 |!>(! (c2 B2)!>)! A2 A2 |!<(! c4 c2!<)! c2 | %9
w: Heil zu al- lem|Stan- de;|hilf dei- nem|Vol- * ke und|seg- ne dein|
 (B2 A2) !breath!G2 B2 | c6!<(! c2!<)! | B4 B2 B2 | c6"^cresc." c2 | B4 (e4- | e2 d2 c2 B2 | %15
w: Er- * be und|wei- de|sie und er-|hö- he|sie e-||
 A4 e4- | e4)!>(! ^d4!>)! | !breath!e8 |!p! e4 d2 d2 | c6 c2 | (c2 B2)!<(! A2 B2!<)! | %21
w: |* wig-|lich.|Herr, he- be|an zu|seg- * nen dein|
 !breath!c6!mf! c2 | c4 f4 | (e6 d2) | !breath!c2 c2 d2 e2 |!<(! f8!<)! | e8 | e8- | %28
w: Volk, denn|was du|seg- *|nest, das ist ge-|seg-|net|e-|
!>(! e4 e4!>)! | !breath!e8 | c8 |!mf!!<(! d8-!<)! | d4!>(! d4!>)! | !fermata!c8 |] %34
w: * wig-|lich.|Ge-|lobt|_ seist|du!|
V:2
!p!!p! E6 E2 | !>!E3 E E2 E2 | E4 !breath!E4 |"^cresc." F6 F2 | !>!F3 F F2 F2 | F4 !breath!F4 | %6
w: Gott, gib|Fried in dei- nem|Lan- de,|Glück und|Heil zu al- lem|Stan- de;|
!mf! F4 F2 F2 |!>(! ^E4!>)! F2 F2 |!<(! =E4 E2!<)! E2 | ^D4 !breath!E2 E2 | E6!<(! E2!<)! | %11
w: hilf dei- nem|Vol- ke und|seg- ne dein|Er- be und|wei- de|
 E4 E2 E2 | E6"^cresc." E2 | E4 (G2 F2 | E8 | E4 E2 A2 | G4)!>(! F4!>)! | !breath!G8 | %18
w: sie und er-|hö- he|sie e- *|||* wig-|lich.|
!p! A4 F2 F2 | ^E6 E2 | F4!<(! F2 F2!<)! | !breath!^E6!mf! E2 | F4 A4 | (A4 G4) | %24
w: Herr, he- be|an zu|seg- nen dein|Volk, denn|was du|seg- *|
 !breath!A2 A2 A2 A2 |!<(! (A4 B2 A2)!<)! | G4 (A4- | A4 G2 F2 |!>(! G4) G4!>)! | !breath!A8 | E8 | %31
w: nest, das ist ge-|seg- * *|net e-||* wig-|lich.|Ge-|
!mf!!<(! F8-!<)! | F4!>(! F4!>)! | !fermata!E8 |] %34
w: lobt|_ seist|du!|
V:3
!p! A6 A2 | !>!B3 B A2 A2 | A4 !breath!G4 |"^cresc." B6 B2 | !>!c3 c B2 B2 | B4 !breath!^A4 | %6
w: Gott, gib|Fried in dei- nem|Lan- de,|Glück und|Heil zu al- lem|Stan- de;|
!mf! B4 B2 A2 |!>(! G4!>)! F2 A2 |!<(! A4 A2!<)! G2 | F4 !breath!E2 G2 | A6!<(! A2!<)! | G4 G2 G2 | %12
w: hilf dei- nem|Vol- ke und|seg- ne dein|Er- be und|wei- de|sie und er-|
 A6"^cresc." A2 | G4 (B2 A2 | G2 B2 A2 G2 | A2 B2 c4 | B4)!>(! B4!>)! | !breath!B8 |!p! c4 B2 A2 | %19
w: hö- he|sie e- *|||* wig-|lich.|Herr, he- be|
 G6 G2 | F4!<(! F2 F2!<)! | !breath!G6!mf! G2 | A4 (d2 c2) | B8 | !breath!A2 A2 A2 c2 | %25
w: an zu|seg- nen dein|Volk, denn|was du _|seg-|nest, das ist ge-|
!<(! d8-!<)! | d4 c4 | B8- |!>(! B4 B4!>)! | !breath!c8 | A8 |!mf!!<(! A8-!<)! | A4!>(! A4!>)! | %33
w: seg-|* net|e-|* wig-|lich.|Ge-|lobt|_ seist|
 !fermata!A8 |] %34
w: du!|
V:4
!p! A,,6 A,,2 | !>!G,,3 G,, A,,2 C,2 | E,4 !breath!E,4 |"^cresc." B,,6 B,,2 | %4
w: Gott, gib|Fried in dei- nem|Lan- de,|Glück und|
 !>!^A,,3 A,, B,,2 D,2 | F,4 !breath!F,4 |!mf! B,,4 B,,2 B,,2 |!>(! C,4!>)! D,2 D,2 | %8
w: Heil zu al- lem|Stan- de;|hilf dei- nem|Vol- ke und|
!<(! A,,4 A,,2!<)! A,,2 | B,,4 !breath!E,2 z2 | z2 A,,2!<(! C,2 A,,2!<)! | E,8 | %12
w: seg- ne dein|Er- be|und wei- de|sie,|
 z2 A,,2"^cresc." C,2 A,,2 | E,8 | (E,6 D,2 | C,2 B,,2 A,,4 | B,,4)!>(! B,,4!>)! | !breath!E,8 | %18
w: er- hö- he|sie|e- *||* wig-|lich.|
!p! A,,4 B,,2 B,,2 | C,6 C,2 | D,4!<(! D,2 D,2!<)! | !breath!C,6!mf! C,2 | F,4 D,4 | E,8 | %24
w: Herr, he- be|an zu|seg- nen dein|Volk, denn|was du|seg-|
 !breath!A,,2 =G,2 F,2 E,2 |!<(! (D,8!<)! | E,8-) | E,4 E,4 |!>(! E,4 E,4!>)! | !breath!A,8 | A,8 | %31
w: nest, das ist ge-|seg-||* net|e- wig-|lich.|Ge-|
!mf!!<(! D,8-!<)! | D,4!>(! D,4!>)! | !fermata!A,,8 |] %34
w: lobt|_ seist||

